X: 8
T: The Star Of Munster
R: reel
M: 4/4
L: 1/8
K: Amin
ed|c2A-c B2G-B|AGE^F GED=F|EAAB cBcd|eaa^f g=fed|
!uppermordent!c2A-c !uppermordent!B2G-B|AGE^F GED=F|EAAB cded|cAB^G A2z2||
e-aab ageg|agbg age^f|{/a}g^fga gfef|gea^f g=fed|
e-aab ageg|agbg age^f|!uppermordent!g2ge !uppermordent!a2ag|b2ba gfed|]


Tune 197	Setting 12855

